X: 10326
T: Dominic MacGowan
R: march
M: 
K: Bminor
M:6/8
|:B>cd c2A|B>ce f3|f>ed e2f|f>ed c2A|
B>cd c2A|B>ce f3|f>ed e2f|d>cA B3:|
|:f3 f>ed|e3 e>de|f2B B>cd|e2d c>BA|
[1f3 f>ed|e3 e>de|f2B B>cd|c>BA B3:|
[2B>cd c2A|B>ce f3|f>ed e2f|d>cA B3||
|:B3 c>BA|B>ce f3|f2e f>Bd|c2B c>AA|
B3 c>BA|B>ce f3|f>ed e2f|d>cA B3:|
|:f>ed e3|e>dc f3|f2B B>cd|e2d c>BA|
[1f>ed e3|e>dc f3|f2B B>cd|c>BA B3:|
[2B>cd c2A|B>ce f3|f>ed e2f|d>cA B3||

